src/cmd/sc_showrow.svg

<?xml version="1.0" encoding="UTF-8" standalone="no"?>
<svg
   xmlns:dc="http://purl.org/dc/elements/1.1/"
   xmlns:cc="http://creativecommons.org/ns#"
   xmlns:rdf="http://www.w3.org/1999/02/22-rdf-syntax-ns#"
   xmlns:svg="http://www.w3.org/2000/svg"
   xmlns="http://www.w3.org/2000/svg"
   xmlns:sodipodi="http://sodipodi.sourceforge.net/DTD/sodipodi-0.dtd"
   xmlns:inkscape="http://www.inkscape.org/namespaces/inkscape"
   viewBox="0 0 16 16"
   version="1.1"
   id="svg6"
   sodipodi:docname="sc_showrow.svg"
   inkscape:version="0.92.5 (2060ec1f9f, 2020-04-08)"
   inkscape:export-filename="/home/jupiter007/Libreoffice yaru theme fullcolor/build/cmd/sc_showrow.png"
   inkscape:export-xdpi="96"
   inkscape:export-ydpi="96">
  <metadata
     id="metadata12">
    <rdf:RDF>
      <cc:Work
         rdf:about="">
        <dc:format>image/svg+xml</dc:format>
        <dc:type
           rdf:resource="http://purl.org/dc/dcmitype/StillImage" />
      </cc:Work>
    </rdf:RDF>
  </metadata>
  <defs
     id="defs10" />
  <sodipodi:namedview
     pagecolor="#ffffff"
     bordercolor="#666666"
     borderopacity="1"
     objecttolerance="10"
     gridtolerance="10"
     guidetolerance="10"
     inkscape:pageopacity="0"
     inkscape:pageshadow="2"
     inkscape:window-width="1920"
     inkscape:window-height="1011"
     id="namedview8"
     showgrid="true"
     inkscape:zoom="29.5"
     inkscape:cx="-6.7685881"
     inkscape:cy="11.476716"
     inkscape:window-x="1920"
     inkscape:window-y="32"
     inkscape:window-maximized="1"
     inkscape:current-layer="svg6">
    <inkscape:grid
       type="xygrid"
       id="grid822" />
  </sodipodi:namedview>
  <rect
     style="opacity:1;fill:#ffffff;fill-opacity:1;stroke:none;stroke-width:2;stroke-linecap:round;stroke-linejoin:round;stroke-miterlimit:4;stroke-dasharray:none;stroke-opacity:1"
     id="rect814"
     width="10"
     height="10"
     x="3"
     y="2.9999998" />
  <path
     d="M 5,2 C 3,2 2,2 2,4 v 1 6 1 c 0,2 1,2 3,2 h 6 c 2,0 3,0 3,-2 V 11 5 4 C 14,2 13,2 11,2 Z M 3,4 C 3,3 4,3 5,3 H 6 V 5 H 7 V 3 h 2 v 2 h 1 V 3 h 1 c 1,0 2,0 2,1 v 1 6 1 c 0,1 -1,1 -2,1 H 10 V 11 H 9 v 2 H 7 V 11 H 6 v 2 H 5 C 4,13 3,13 3,12 V 11 5 Z"
     id="path2"
     inkscape:connector-curvature="0"
     style="fill:#6d6d6d;fill-opacity:1"
     sodipodi:nodetypes="cccccccccccccccccccccccccccccccccccccccccc" />
  <path
     inkscape:connector-curvature="0"
     style="fill:#762572"
     d="M 3,5 V 6.71875 L 6.28125,10 H 3 v 1 h 4.28125 4 H 13 v -1 h -1.28125 l -4,-4 h 2.5625 L 13,8.71875 V 7.28125 L 11.71875,6 H 13 V 5 Z m 0.71875,1 h 2.5625 l 4,4 h -2.5625 z"
     id="path4" />
  <circle
     style="opacity:0.6;fill:#000000;fill-opacity:1;fill-rule:evenodd;stroke:#000000;stroke-width:2;stroke-linecap:butt;stroke-linejoin:round;stroke-miterlimit:4;stroke-dasharray:none;stroke-opacity:1"
     id="path831"
     cx="12"
     cy="12"
     r="3" />
  <circle
     r="3"
     cy="12"
     cx="12"
     id="circle833"
     style="opacity:1;fill:#ffffff;fill-opacity:1;fill-rule:evenodd;stroke:none;stroke-width:2;stroke-linecap:butt;stroke-linejoin:round;stroke-miterlimit:4;stroke-dasharray:none;stroke-opacity:1" />
  <path
     d="m 11.999999,10 c -1.104569,0 -1.9999999,0.895431 -1.9999999,2 0,1.10457 0.8954309,2 1.9999999,2 1.104569,0 2,-0.89543 2,-2 0.02896,-0.194894 0.02896,-0.392997 0,-0.587891 -0.174008,0.38903 -0.57545,0.625034 -1,0.587891 -0.552285,0 -1,-0.447715 -1,-1 -0.03682,-0.425027 0.200048,-0.826612 0.589844,-1 -0.195534,-0.02915 -0.39431,-0.02915 -0.589844,0 z"
     id="path2-3"
     inkscape:connector-curvature="0"
     style="fill:#232629"
     sodipodi:nodetypes="csscccccc" />
</svg>

<?xml version="1.0" encoding="UTF-8" standalone="no"?>
<svg
   xmlns:dc="http://purl.org/dc/elements/1.1/"
   xmlns:cc="http://creativecommons.org/ns#"
   xmlns:rdf="http://www.w3.org/1999/02/22-rdf-syntax-ns#"
   xmlns:svg="http://www.w3.org/2000/svg"
   xmlns="http://www.w3.org/2000/svg"
   xmlns:sodipodi="http://sodipodi.sourceforge.net/DTD/sodipodi-0.dtd"
   xmlns:inkscape="http://www.inkscape.org/namespaces/inkscape"
   viewBox="0 0 16 16"
   version="1.1"
   id="svg6"
   sodipodi:docname="sc_showrow.svg"
   inkscape:version="0.92.4 (5da689c313, 2019-01-14)">
  <metadata
     id="metadata12">
    <rdf:RDF>
      <cc:Work
         rdf:about="">
        <dc:format>image/svg+xml</dc:format>
        <dc:type
           rdf:resource="http://purl.org/dc/dcmitype/StillImage" />
      </cc:Work>
    </rdf:RDF>
  </metadata>
  <defs
     id="defs10" />
  <sodipodi:namedview
     pagecolor="#ffffff"
     bordercolor="#666666"
     borderopacity="1"
     objecttolerance="10"
     gridtolerance="10"
     guidetolerance="10"
     inkscape:pageopacity="0"
     inkscape:pageshadow="2"
     inkscape:window-width="1920"
     inkscape:window-height="1011"
     id="namedview8"
     showgrid="true"
     inkscape:zoom="29.5"
     inkscape:cx="1.0449712"
     inkscape:cy="11.612309"
     inkscape:window-x="1920"
     inkscape:window-y="32"
     inkscape:window-maximized="1"
     inkscape:current-layer="svg6">
    <inkscape:grid
       type="xygrid"
       id="grid822" />
  </sodipodi:namedview>
  <path
     d="M 5,2 C 3,2 2,2 2,4 v 1 6 1 c 0,2 1,2 3,2 h 6 c 2,0 3,0 3,-2 V 11 5 4 C 14,2 13,2 11,2 Z M 3,4 C 3,3 4,3 5,3 H 6 V 5 H 7 V 3 h 2 v 2 h 1 V 3 h 1 c 1,0 2,0 2,1 v 1 6 1 c 0,1 -1,1 -2,1 H 10 V 11 H 9 v 2 H 7 V 11 H 6 v 2 H 5 C 4,13 3,13 3,12 V 11 5 Z"
     id="path2"
     inkscape:connector-curvature="0"
     style="fill:#232629"
     sodipodi:nodetypes="cccccccccccccccccccccccccccccccccccccccccc" />
  <path
     d="m3 5v1.71875l3.28125 3.28125h-3.28125v1h4.28125 4 1.71875v-1h-1.28125l-4-4h2.5625l2.71875 2.71875v-1.4375l-1.28125-1.28125h1.28125v-1zm.71875 1h2.5625l4 4h-2.5625z"
     fill="#762572"
     id="path4" />
</svg>
